camera-front-variant.svg

<svg fill="currentColor" viewBox="0 0 24 24"><path d="M6 0h12a2 2 0 0 1 2 2v20a2 2 0 0 1-2 2H6a2 2 0 0 1-2-2V2a2 2 0 0 1 2-2m6 6a3 3 0 0 1 3 3 3 3 0 0 1-3 3 3 3 0 0 1-3-3 3 3 0 0 1 3-3m-1-5v2h2V1zM6 4v12.5c0-1.38 2.69-2.5 6-2.5s6 1.12 6 2.5V4zm7 14H9v2h4v2l3-3-3-3z"/></svg>

<svg  viewBox="0 0 24 24" fill="currentColor"><path  d="M6,0H18A2,2 0 0,1 20,2V22A2,2 0 0,1 18,24H6A2,2 0 0,1 4,22V2A2,2 0 0,1 6,0M12,6A3,3 0 0,1 15,9A3,3 0 0,1 12,12A3,3 0 0,1 9,9A3,3 0 0,1 12,6M11,1V3H13V1H11M6,4V16.5C6,15.12 8.69,14 12,14C15.31,14 18,15.12 18,16.5V4H6M13,18H9V20H13V22L16,19L13,16V18Z"/></svg>
